icons/svg/sport/bmx.svg

<?xml version="1.0" encoding="UTF-8" standalone="no"?>
<!-- Created with Inkscape (http://www.inkscape.org/) -->

<svg
   xmlns:dc="http://purl.org/dc/elements/1.1/"
   xmlns:cc="http://creativecommons.org/ns#"
   xmlns:rdf="http://www.w3.org/1999/02/22-rdf-syntax-ns#"
   xmlns:svg="http://www.w3.org/2000/svg"
   xmlns="http://www.w3.org/2000/svg"
   xmlns:sodipodi="http://sodipodi.sourceforge.net/DTD/sodipodi-0.dtd"
   xmlns:inkscape="http://www.inkscape.org/namespaces/inkscape"
   version="1.0"
   width="580"
   height="580"
   id="svg2"
   sodipodi:version="0.32"
   inkscape:version="0.48.4 r9939"
   sodipodi:docname="paragliding.svg"
   inkscape:output_extension="org.inkscape.output.svg.inkscape">
  <metadata
     id="metadata2975">
    <rdf:RDF>
      <cc:Work
         rdf:about="">
        <dc:format>image/svg+xml</dc:format>
        <dc:type
           rdf:resource="http://purl.org/dc/dcmitype/StillImage" />
        <cc:license
           rdf:resource="http://web.resource.org/cc/PublicDomain" />
        <dc:language>en</dc:language>
        <dc:title></dc:title>
      </cc:Work>
    </rdf:RDF>
  </metadata>
  <sodipodi:namedview
     inkscape:window-height="1004"
     inkscape:window-width="1920"
     inkscape:pageshadow="2"
     inkscape:pageopacity="0.0"
     guidetolerance="10.0"
     gridtolerance="10.0"
     objecttolerance="10.0"
     borderopacity="1.0"
     bordercolor="#666666"
     pagecolor="#ffffff"
     id="base"
     inkscape:zoom="0.46083856"
     inkscape:cx="184.28333"
     inkscape:cy="448.51976"
     inkscape:window-x="1680"
     inkscape:window-y="0"
     inkscape:current-layer="svg2"
     showgrid="false"
     inkscape:window-maximized="1" />
  <defs
     id="defs4">
    <inkscape:perspective
       sodipodi:type="inkscape:persp3d"
       inkscape:vp_x="0 : 290 : 1"
       inkscape:vp_y="0 : 1000 : 0"
       inkscape:vp_z="580 : 290 : 1"
       inkscape:persp3d-origin="290 : 193.33333 : 1"
       id="perspective10" />
  </defs>
  <g
     id="g1327">
    <path
       d="M 66.275,1.768 C 24.94,1.768 1.704,23.139 1.704,66.804 l 0,450.123 c 0,40.844 20.895,62.229 62.192,62.229 l 452.024,0 c 41.307,0 62.229,-20.315 62.229,-62.229 l 0,-450.123 c 0,-42.601 -20.922,-65.036 -63.521,-65.036 -0.004,0 -448.495,-0.143 -448.353,0 z"
       style="fill:#111111;stroke:#eeeeee;stroke-width:3.40799999"
       id="path1329"
       inkscape:connector-curvature="0" />
  </g>
  <circle
     transform="matrix(19.121433,0,0,19.121433,22.079699,41.421378)"
     sodipodi:ry="2.5"
     sodipodi:rx="2.5"
     sodipodi:cy="2.5"
     sodipodi:cx="8.5"
     cx="8.5"
     cy="2.5"
     r="2.5"
     id="circle3"
     style="fill:#ffffff;fill-opacity:1" />
  <g
     transform="matrix(19.121433,0,0,19.121433,22.079699,41.421378)"
     id="g5"
     style="stroke:#ffffff;stroke-opacity:1">
    <g
       id="g7"
       style="stroke:#ffffff;stroke-opacity:1">
      <path
         style="fill:none;stroke:#ffffff;stroke-width:2;stroke-miterlimit:10;stroke-opacity:1"
         inkscape:connector-curvature="0"
         stroke-miterlimit="10"
         d="m 11,17 c -2.2,0 -4,1.8 -4,4 0,2.2 1.8,4 4,4 2.2,0 4,-1.8 4,-4 0,-2.2 -1.8,-4 -4,-4 l 0,0 z"
         id="path9" />
    </g>
  </g>
  <g
     transform="matrix(19.121433,0,0,19.121433,22.079699,41.421378)"
     id="g11"
     style="stroke:#ffffff;stroke-opacity:1">
    <g
       id="g13"
       style="stroke:#ffffff;stroke-opacity:1">
      <path
         style="fill:none;stroke:#ffffff;stroke-width:2;stroke-miterlimit:10;stroke-opacity:1"
         inkscape:connector-curvature="0"
         stroke-miterlimit="10"
         d="m 19,4 c -2.2,0 -4,1.8 -4,4 0,2.2 1.8,4 4,4 2.2,0 4,-1.8 4,-4 0,-2.2 -1.8,-4 -4,-4 l 0,0 z"
         id="path15" />
    </g>
  </g>
  <path
     inkscape:connector-curvature="0"
     d="m 184.61187,158.06211 c -19.12143,-5.73642 -40.15502,5.73643 -45.89144,26.77 l -38.24287,133.85002 c -5.736424,21.03359 5.73644,42.06715 26.77001,47.80358 1.91215,0 5.73643,0 9.56072,0 17.20929,0 32.50644,-11.47285 36.33072,-28.68215 l 49.71573,-172.09288 c 5.73643,-19.12144 -17.20929,-1.91214 -38.24287,-7.64857 z"
     id="path17"
     style="fill:#ffffff;fill-opacity:1" />
  <path
     inkscape:connector-curvature="0"
     d="m 324.19828,66.279239 c -7.64852,-7.648572 -19.12139,-7.648572 -26.76997,0 l -57.3643,55.452141 -78.39785,36.33073 c -9.56072,5.73643 11.47285,19.12144 17.20928,26.77 3.82428,5.73642 9.56071,9.56072 15.29715,9.56072 3.82428,0 7.64856,-1.91215 11.47286,-3.8243 l 57.36429,-38.24284 c 1.91214,0 1.91214,-1.91216 1.91214,-1.91216 l 59.2764,-57.364292 c 7.64863,-7.648569 7.64863,-19.121426 0,-26.769999 z"
     id="path19"
     style="fill:#ffffff;fill-opacity:1" />
  <path
     inkscape:connector-curvature="0"
     d="m 339.49541,316.76999 -76.48567,-76.48572 c -9.56072,-9.56072 -24.85785,-11.47286 -36.33072,-3.82429 l -105.16787,76.48573 c -13.38501,9.56071 -15.29715,26.77001 -5.73644,40.155 3.82429,9.56071 11.47286,13.385 21.03358,13.385 5.73644,0 15.29715,-1.91213 21.03357,-5.73643 l 80.31003,-61.18858 59.27642,59.27645 c 11.47287,11.47285 28.68221,11.47285 40.15498,0 11.47287,-11.47288 11.47287,-30.59431 1.91212,-42.06716 z"
     id="path21"
     style="fill:#ffffff;fill-opacity:1" />
</svg>

<svg width="580" height="580" viewBox="0 0 580 580" fill="none" xmlns="http://www.w3.org/2000/svg">
<g clip-path="url(#clip0)">
<path d="M66.275 1.76815C24.94 1.76815 1.70398 23.1391 1.70398 66.8041V516.927C1.70398 557.771 22.599 579.156 63.896 579.156H515.92C557.227 579.156 578.149 558.841 578.149 516.927V66.8041C578.149 24.2031 557.227 1.76815 514.628 1.76815C514.624 1.76815 66.133 1.62515 66.275 1.76815V1.76815Z" fill="#111111" stroke="#EEEEEE" stroke-width="3.408"/>
<path d="M184.612 137.029C211.013 137.029 232.416 115.626 232.416 89.225C232.416 62.8238 211.013 41.4214 184.612 41.4214C158.211 41.4214 136.808 62.8238 136.808 89.225C136.808 115.626 158.211 137.029 184.612 137.029Z" fill="white"/>
<path d="M232.415 366.486C190.348 366.486 155.93 400.904 155.93 442.972C155.93 485.039 190.348 519.457 232.415 519.457C274.483 519.457 308.901 485.039 308.901 442.972C308.901 400.904 274.483 366.486 232.415 366.486Z" stroke="white" stroke-width="38.2429" stroke-miterlimit="10"/>
<path d="M385.387 117.907C343.32 117.907 308.901 152.326 308.901 194.393C308.901 236.46 343.32 270.879 385.387 270.879C427.454 270.879 461.873 236.46 461.873 194.393C461.873 152.326 427.454 117.907 385.387 117.907Z" stroke="white" stroke-width="38.2429" stroke-miterlimit="10"/>
<path d="M184.612 158.062C165.49 152.326 144.457 163.799 138.72 184.832L100.478 318.682C94.7411 339.716 106.214 360.749 127.248 366.486C129.16 366.486 132.984 366.486 136.808 366.486C154.018 366.486 169.315 355.013 173.139 337.804L222.855 165.711C228.591 146.589 205.645 163.799 184.612 158.062V158.062Z" fill="white"/>
<path d="M324.198 66.2794C316.55 58.6308 305.077 58.6308 297.428 66.2794L240.064 121.732L161.666 158.062C152.105 163.799 173.139 177.184 178.875 184.832C182.7 190.569 188.436 194.393 194.173 194.393C197.997 194.393 201.821 192.481 205.645 190.569L263.01 152.326C264.922 152.326 264.922 150.414 264.922 150.414L324.198 93.0494C331.847 85.4008 331.847 73.928 324.198 66.2794V66.2794Z" fill="white"/>
<path d="M339.495 316.77L263.01 240.284C253.449 230.723 238.152 228.811 226.679 236.46L121.511 312.945C108.126 322.506 106.214 339.715 115.775 353.1C119.599 362.661 127.248 366.485 136.808 366.485C142.545 366.485 152.105 364.573 157.842 360.749L238.152 299.56L297.428 358.837C308.901 370.31 326.111 370.31 337.583 358.837C349.056 347.364 349.056 328.243 339.495 316.77V316.77Z" fill="white"/>
</g>
<defs>
<clipPath id="clip0">
<path d="M0 0H580V580H0V0Z" fill="white"/>
</clipPath>
</defs>
</svg>
